svg/LeftHanded/crosshair.svg

<?xml version="1.0" encoding="UTF-8" standalone="no"?>
<!-- Created with Inkscape (http://www.inkscape.org/) -->

<svg
   xmlns:dc="http://purl.org/dc/elements/1.1/"
   xmlns:cc="http://creativecommons.org/ns#"
   xmlns:rdf="http://www.w3.org/1999/02/22-rdf-syntax-ns#"
   xmlns:svg="http://www.w3.org/2000/svg"
   xmlns="http://www.w3.org/2000/svg"
   xmlns:xlink="http://www.w3.org/1999/xlink"
   xmlns:sodipodi="http://sodipodi.sourceforge.net/DTD/sodipodi-0.dtd"
   xmlns:inkscape="http://www.inkscape.org/namespaces/inkscape"
   version="1.0"
   width="500"
   height="500"
   viewBox="0 0 1000 1000"
   id="page"
   xml:space="preserve"
   inkscape:version="0.48.2 r9819"
   sodipodi:docname="crosshair.svg"><metadata
     id="metadata19"><rdf:RDF><cc:Work
         rdf:about=""><dc:format>image/svg+xml</dc:format><dc:type
           rdf:resource="http://purl.org/dc/dcmitype/StillImage" /><dc:title /></cc:Work></rdf:RDF></metadata><sodipodi:namedview
     pagecolor="#ffffff"
     bordercolor="#666666"
     borderopacity="1"
     objecttolerance="10"
     gridtolerance="10"
     guidetolerance="10"
     inkscape:pageopacity="0"
     inkscape:pageshadow="2"
     inkscape:window-width="1226"
     inkscape:window-height="782"
     id="namedview17"
     showgrid="false"
     inkscape:zoom="0.472"
     inkscape:cx="-167.74507"
     inkscape:cy="252.11864"
     inkscape:window-x="321"
     inkscape:window-y="152"
     inkscape:window-maximized="0"
     inkscape:current-layer="page" /><defs
     id="defs38"><linearGradient
       id="linearGradient2312"><stop
         id="stop2314"
         style="stop-color:#999999;stop-opacity:1"
         offset="0" /><stop
         id="stop2316"
         style="stop-color:#555555;stop-opacity:1"
         offset="1" /></linearGradient><linearGradient
       x1="10"
       y1="588"
       x2="156"
       y2="588"
       id="linearGradient1324"
       xlink:href="#linearGradient2312"
       gradientUnits="userSpaceOnUse"
       gradientTransform="matrix(0,1,-1,0,799,322.785)" /><linearGradient
       x1="10"
       y1="156"
       x2="156"
       y2="156"
       id="linearGradient1327"
       xlink:href="#linearGradient2312"
       gradientUnits="userSpaceOnUse"
       gradientTransform="matrix(0,1,-1,0,799,322.785)" /><linearGradient
       x1="10"
       y1="442"
       x2="10"
       y2="588"
       id="linearGradient1325"
       xlink:href="#linearGradient2312"
       gradientUnits="userSpaceOnUse"
       gradientTransform="translate(417,106.785)" /><linearGradient
       x1="10"
       y1="10"
       x2="10"
       y2="156"
       id="linearGradient1328"
       xlink:href="#linearGradient2312"
       gradientUnits="userSpaceOnUse"
       gradientTransform="translate(417,106.785)" /><linearGradient
       x1="10"
       y1="10"
       x2="10"
       y2="156"
       id="linearGradient1328-8"
       xlink:href="#linearGradient2312-4"
       gradientUnits="userSpaceOnUse"
       gradientTransform="translate(-477.0678,114.26492)" /><linearGradient
       id="linearGradient2312-4"><stop
         id="stop2314-8"
         style="stop-color:#999999;stop-opacity:1"
         offset="0" /><stop
         id="stop2316-2"
         style="stop-color:#555555;stop-opacity:1"
         offset="1" /></linearGradient><linearGradient
       x1="10"
       y1="442"
       x2="10"
       y2="588"
       id="linearGradient1325-4"
       xlink:href="#linearGradient2312-4"
       gradientUnits="userSpaceOnUse"
       gradientTransform="translate(-477.0678,114.26492)" /><linearGradient
       id="linearGradient3017"><stop
         id="stop3019"
         style="stop-color:#999999;stop-opacity:1"
         offset="0" /><stop
         id="stop3021"
         style="stop-color:#555555;stop-opacity:1"
         offset="1" /></linearGradient><linearGradient
       x1="10"
       y1="156"
       x2="156"
       y2="156"
       id="linearGradient1327-2"
       xlink:href="#linearGradient2312-4"
       gradientUnits="userSpaceOnUse"
       gradientTransform="matrix(0,1,-1,0,-95.067797,330.26492)" /><linearGradient
       id="linearGradient3024"><stop
         id="stop3026"
         style="stop-color:#999999;stop-opacity:1"
         offset="0" /><stop
         id="stop3028"
         style="stop-color:#555555;stop-opacity:1"
         offset="1" /></linearGradient><linearGradient
       x1="10"
       y1="588"
       x2="156"
       y2="588"
       id="linearGradient1324-9"
       xlink:href="#linearGradient2312-4"
       gradientUnits="userSpaceOnUse"
       gradientTransform="matrix(0,1,-1,0,799,322.785)" /><linearGradient
       id="linearGradient3031"><stop
         id="stop3033"
         style="stop-color:#999999;stop-opacity:1"
         offset="0" /><stop
         id="stop3035"
         style="stop-color:#555555;stop-opacity:1"
         offset="1" /></linearGradient><linearGradient
       inkscape:collect="always"
       xlink:href="#linearGradient2312-7"
       id="linearGradient3877-4"
       gradientUnits="userSpaceOnUse"
       gradientTransform="matrix(0,1,-1,0,799,322.785)"
       x1="10"
       y1="156"
       x2="156"
       y2="156" /><linearGradient
       id="linearGradient2312-7"><stop
         id="stop2314-85"
         style="stop-color:#999999;stop-opacity:1"
         offset="0" /><stop
         id="stop2316-4"
         style="stop-color:#555555;stop-opacity:1"
         offset="1" /></linearGradient><linearGradient
       id="linearGradient2312-9"><stop
         id="stop2314-6"
         style="stop-color:#999999;stop-opacity:1"
         offset="0" /><stop
         id="stop2316-6"
         style="stop-color:#555555;stop-opacity:1"
         offset="1" /></linearGradient><linearGradient
       id="linearGradient3948"><stop
         id="stop3950"
         style="stop-color:#999999;stop-opacity:1"
         offset="0" /><stop
         id="stop3952"
         style="stop-color:#555555;stop-opacity:1"
         offset="1" /></linearGradient><linearGradient
       id="linearGradient3955"><stop
         id="stop3957"
         style="stop-color:#999999;stop-opacity:1"
         offset="0" /><stop
         id="stop3959"
         style="stop-color:#555555;stop-opacity:1"
         offset="1" /></linearGradient><linearGradient
       inkscape:collect="always"
       xlink:href="#linearGradient2312-9"
       id="linearGradient3874-7"
       gradientUnits="userSpaceOnUse"
       gradientTransform="matrix(0,1,-1,0,799,322.785)"
       x1="10"
       y1="588"
       x2="156"
       y2="588" /><linearGradient
       id="linearGradient3962"><stop
         id="stop3964"
         style="stop-color:#999999;stop-opacity:1"
         offset="0" /><stop
         id="stop3966"
         style="stop-color:#555555;stop-opacity:1"
         offset="1" /></linearGradient><linearGradient
       inkscape:collect="always"
       xlink:href="#linearGradient2312"
       id="linearGradient4049"
       gradientUnits="userSpaceOnUse"
       gradientTransform="matrix(0,1,-1,0,799,322.785)"
       x1="10"
       y1="588"
       x2="156"
       y2="588" /><linearGradient
       inkscape:collect="always"
       xlink:href="#linearGradient2312"
       id="linearGradient4052"
       gradientUnits="userSpaceOnUse"
       gradientTransform="matrix(0,1,-1,0,799,322.785)"
       x1="10"
       y1="156"
       x2="156"
       y2="156" /><linearGradient
       inkscape:collect="always"
       xlink:href="#linearGradient2312"
       id="linearGradient4055"
       gradientUnits="userSpaceOnUse"
       gradientTransform="translate(417,106.785)"
       x1="10"
       y1="442"
       x2="10"
       y2="588" /><linearGradient
       inkscape:collect="always"
       xlink:href="#linearGradient2312"
       id="linearGradient4058"
       gradientUnits="userSpaceOnUse"
       gradientTransform="translate(417,106.785)"
       x1="10"
       y1="10"
       x2="10"
       y2="156" /><linearGradient
       id="linearGradient2312-8"><stop
         id="stop2314-4"
         style="stop-color:#999999;stop-opacity:1"
         offset="0" /><stop
         id="stop2316-7"
         style="stop-color:#555555;stop-opacity:1"
         offset="1" /></linearGradient><linearGradient
       id="linearGradient4113"><stop
         id="stop4115"
         style="stop-color:#999999;stop-opacity:1"
         offset="0" /><stop
         id="stop4117"
         style="stop-color:#555555;stop-opacity:1"
         offset="1" /></linearGradient><linearGradient
       inkscape:collect="always"
       xlink:href="#linearGradient2312-8"
       id="linearGradient4058-2"
       gradientUnits="userSpaceOnUse"
       gradientTransform="translate(417,106.785)"
       x1="10"
       y1="10"
       x2="10"
       y2="156" /><linearGradient
       id="linearGradient4120"><stop
         id="stop4122"
         style="stop-color:#999999;stop-opacity:1"
         offset="0" /><stop
         id="stop4124"
         style="stop-color:#555555;stop-opacity:1"
         offset="1" /></linearGradient><linearGradient
       id="linearGradient4127"><stop
         id="stop4129"
         style="stop-color:#999999;stop-opacity:1"
         offset="0" /><stop
         id="stop4131"
         style="stop-color:#555555;stop-opacity:1"
         offset="1" /></linearGradient><filter
       inkscape:collect="always"
       id="filter4186"
       x="-1.0628571"
       width="3.1257142"
       y="-1.0628571"
       height="3.1257142"><feGaussianBlur
         inkscape:collect="always"
         stdDeviation="66.959998"
         id="feGaussianBlur4188" /></filter><filter
       inkscape:collect="always"
       id="filter4190"
       x="-1.0628571"
       width="3.1257142"
       y="-1.0628573"
       height="3.1257147"><feGaussianBlur
         inkscape:collect="always"
         stdDeviation="66.959998"
         id="feGaussianBlur4192" /></filter><filter
       inkscape:collect="always"
       id="filter4194"
       x="-1.0628571"
       width="3.1257142"
       y="-1.0628571"
       height="3.1257142"><feGaussianBlur
         inkscape:collect="always"
         stdDeviation="66.959998"
         id="feGaussianBlur4196" /></filter><filter
       inkscape:collect="always"
       id="filter4198"
       x="-1.0628571"
       width="3.1257142"
       y="-1.0628571"
       height="3.1257142"><feGaussianBlur
         inkscape:collect="always"
         stdDeviation="66.959998"
         id="feGaussianBlur4200" /></filter></defs><path
     inkscape:connector-curvature="0"
     d="m 575.6,309.785 c 0,41.7516 -33.8472,75.6 -75.6,75.6 -41.7528,0 -75.6,-33.8472 -75.6,-75.6 0,-41.7528 33.8472,-75.6 75.6,-75.6 41.7528,0 75.6,33.8484 75.6,75.6 z"
     id="path1398-9"
     style="opacity:0.15;fill:#111111;fill-opacity:1;stroke:none;filter:url(#filter4186)" /><path
     inkscape:connector-curvature="0"
     d="m 716,601.385 c -41.7516,0 -75.6,-33.8472 -75.6,-75.6 0,-41.7528 33.8472,-75.6 75.6,-75.6 41.7528,0 75.6,33.8472 75.6,75.6 0,41.7528 -33.8484,75.6 -75.6,75.6 z"
     id="path2415-6"
     style="opacity:0.15;fill:#111111;fill-opacity:1;stroke:none;filter:url(#filter4194)" /><path
     inkscape:connector-curvature="0"
     d="m 284,601.385 c -41.7516,0 -75.6,-33.8484 -75.6,-75.6 0,-41.7528 33.8484,-75.6 75.6,-75.6 41.7528,0 75.6,33.8472 75.6,75.6 0,41.7516 -33.8472,75.6 -75.6,75.6 z"
     id="path2421-6"
     style="opacity:0.15;fill:#111111;fill-opacity:1;stroke:none;filter:url(#filter4198)" /><path
     inkscape:connector-curvature="0"
     d="m 575.6,741.78498 c 0,41.75161 -33.8484,75.6 -75.6,75.6 -41.7528,0 -75.6,-33.8484 -75.6,-75.6 0,-41.75277 33.8472,-75.59996 75.6,-75.59996 41.7516,0 75.6,33.8472 75.6,75.59996 z"
     id="path1404-4"
     style="opacity:0.15;fill:#111111;fill-opacity:1;stroke:none;filter:url(#filter4190)" /><path
     d="M 500.00005,253.98727 L 500.00005,555.57794"
     id="path1406"
     style="fill:none;stroke:#010101;stroke-width:20;stroke-linecap:round;stroke-linejoin:round;stroke-miterlimit:3.13260007000000007;stroke-dasharray:none;stroke-opacity:1;opacity:0.75" /><path
     d="M 649.79773,405.78505 L 348.20706,405.78505"
     id="path2423"
     style="fill:none;stroke:#010101;stroke-width:20;stroke-linecap:round;stroke-linejoin:round;stroke-miterlimit:3.13260007000000007;stroke-dasharray:none;stroke-opacity:1;opacity:0.75" /><path
     inkscape:connector-curvature="0"
     d="m 563,189.785 c 0,34.793 -28.206,63 -63,63 -34.794,0 -63,-28.206 -63,-63 0,-34.794 28.206,-63 63,-63 34.794,0 63,28.207 63,63 z"
     id="path1398"
     style="fill:url(#linearGradient4058);fill-opacity:1;stroke:#000000;stroke-width:20;stroke-linecap:round;stroke-linejoin:round;stroke-miterlimit:3.13260007000000007;opacity:0.75" /><path
     inkscape:connector-curvature="0"
     d="m 563,621.785 c 0,34.793 -28.207,63 -63,63 -34.794,0 -63,-28.207 -63,-63 0,-34.794 28.206,-63 63,-63 34.793,0 63,28.206 63,63 z"
     id="path1404"
     style="fill:url(#linearGradient4055);fill-opacity:1;stroke:#000000;stroke-width:20;stroke-linecap:round;stroke-linejoin:round;stroke-miterlimit:3.13260007000000007;opacity:0.75" /><path
     inkscape:connector-curvature="0"
     d="m 716,468.785 c -34.793,0 -63,-28.206 -63,-63 0,-34.794 28.206,-63 63,-63 34.794,0 63,28.206 63,63 0,34.794 -28.207,63 -63,63 z"
     id="path2415"
     style="fill:url(#linearGradient4052);fill-opacity:1;stroke:#000000;stroke-width:20;stroke-linecap:round;stroke-linejoin:round;stroke-miterlimit:3.13260007000000007;opacity:0.75" /><path
     inkscape:connector-curvature="0"
     d="m 284,468.785 c -34.793,0 -63,-28.207 -63,-63 0,-34.794 28.207,-63 63,-63 34.794,0 63,28.206 63,63 0,34.793 -28.206,63 -63,63 z"
     id="path2421"
     style="fill:url(#linearGradient4049);fill-opacity:1;stroke:#000000;stroke-width:20;stroke-linecap:round;stroke-linejoin:round;stroke-miterlimit:3.13260007000000007;opacity:0.75" /></svg>

<?xml version="1.0" encoding="UTF-8" standalone="no"?>
<!-- Created with Inkscape (http://www.inkscape.org/) -->
<svg
   xmlns:svg="http://www.w3.org/2000/svg"
   xmlns="http://www.w3.org/2000/svg"
   xmlns:xlink="http://www.w3.org/1999/xlink"
   version="1.0"
   width="500"
   height="500"
   viewBox="0 0 1000 1000"
   id="page"
   xml:space="preserve"><defs
     id="defs38"><linearGradient
       id="linearGradient2312"><stop
         id="stop2314"
         style="stop-color:#999999;stop-opacity:1"
         offset="0" /><stop
         id="stop2316"
         style="stop-color:#555555;stop-opacity:1"
         offset="1" /></linearGradient><linearGradient
       x1="10"
       y1="588"
       x2="156"
       y2="588"
       id="linearGradient1324"
       xlink:href="#linearGradient2312"
       gradientUnits="userSpaceOnUse"
       gradientTransform="matrix(0,1,-1,0,799,322.785)" /><linearGradient
       x1="10"
       y1="156"
       x2="156"
       y2="156"
       id="linearGradient1327"
       xlink:href="#linearGradient2312"
       gradientUnits="userSpaceOnUse"
       gradientTransform="matrix(0,1,-1,0,799,322.785)" /><linearGradient
       x1="10"
       y1="442"
       x2="10"
       y2="588"
       id="linearGradient1325"
       xlink:href="#linearGradient2312"
       gradientUnits="userSpaceOnUse"
       gradientTransform="translate(417,106.785)" /><linearGradient
       x1="10"
       y1="10"
       x2="10"
       y2="156"
       id="linearGradient1328"
       xlink:href="#linearGradient2312"
       gradientUnits="userSpaceOnUse"
       gradientTransform="translate(417,106.785)" /></defs><path
     d="M 500.00005,253.98727 L 500.00005,555.57794"
     id="path1406"
     style="fill:none;stroke:#010101;stroke-width:20;stroke-linecap:round;stroke-linejoin:round;stroke-miterlimit:3.13260007;stroke-dasharray:none;stroke-opacity:1" /><path
     d="M 649.79773,405.78505 L 348.20706,405.78505"
     id="path2423"
     style="fill:none;stroke:#010101;stroke-width:20;stroke-linecap:round;stroke-linejoin:round;stroke-miterlimit:3.13260007;stroke-dasharray:none;stroke-opacity:1" /><path
     d="M 563,189.785 C 563,224.578 534.794,252.785 500,252.785 C 465.206,252.785 437,224.579 437,189.785 C 437,154.991 465.206,126.785 500,126.785 C 534.794,126.785 563,154.992 563,189.785 z"
     id="path1398"
     style="fill:url(#linearGradient1328);fill-opacity:1;stroke:#000000;stroke-width:20;stroke-linecap:round;stroke-linejoin:round;stroke-miterlimit:3.13260007" /><path
     d="M 563,621.785 C 563,656.578 534.793,684.785 500,684.785 C 465.206,684.785 437,656.578 437,621.785 C 437,586.991 465.206,558.785 500,558.785 C 534.793,558.785 563,586.991 563,621.785 z"
     id="path1404"
     style="fill:url(#linearGradient1325);fill-opacity:1;stroke:#000000;stroke-width:20;stroke-linecap:round;stroke-linejoin:round;stroke-miterlimit:3.13260007" /><path
     d="M 716,468.785 C 681.207,468.785 653,440.579 653,405.785 C 653,370.991 681.206,342.785 716,342.785 C 750.794,342.785 779,370.991 779,405.785 C 779,440.579 750.793,468.785 716,468.785 z"
     id="path2415"
     style="fill:url(#linearGradient1327);fill-opacity:1;stroke:#000000;stroke-width:20;stroke-linecap:round;stroke-linejoin:round;stroke-miterlimit:3.13260007" /><path
     d="M 284,468.785 C 249.207,468.785 221,440.578 221,405.785 C 221,370.991 249.207,342.785 284,342.785 C 318.794,342.785 347,370.991 347,405.785 C 347,440.578 318.794,468.785 284,468.785 z"
     id="path2421"
     style="fill:url(#linearGradient1324);fill-opacity:1;stroke:#000000;stroke-width:20;stroke-linecap:round;stroke-linejoin:round;stroke-miterlimit:3.13260007" /></svg>
